static/images/Shutter-01.svg

<?xml version="1.0" encoding="UTF-8"?>
<svg id="Layer_1" data-name="Layer 1" xmlns="http://www.w3.org/2000/svg" viewBox="0 0 1200 1200">
  <defs>
    <style>
      .cls-1 {
        fill: #fff;
      }

      .cls-2 {
        fill: #207178;
      }
    </style>
  </defs>
  <rect class="cls-1" width="1200" height="1200"/>
  <rect class="cls-1" width="1200" height="1200"/>
  <path class="cls-2" d="m600,356.86c-134.06,0-243.14,109.07-243.14,243.14s109.07,243.14,243.14,243.14,243.14-109.07,243.14-243.14-109.07-243.14-243.14-243.14Zm0,501.54c-69.01,0-133.91-26.89-182.71-75.69-48.8-48.8-75.69-113.7-75.69-182.71s26.89-133.91,75.69-182.71c48.8-48.8,113.7-75.69,182.71-75.69s133.91,26.89,182.71,75.69c48.8,48.8,75.69,113.7,75.69,182.71s-26.89,133.91-75.69,182.71c-48.8,48.8-113.7,75.69-182.71,75.69Z"/>
  <path class="cls-2" d="m600,422.28c-98,0-177.72,79.72-177.72,177.72s79.72,177.72,177.72,177.72,177.72-79.72,177.72-177.72-79.72-177.72-177.72-177.72Zm0,370.7c-106.41,0-192.98-86.57-192.98-192.98s86.57-192.98,192.98-192.98,192.98,86.57,192.98,192.98-86.57,192.98-192.98,192.98Z"/>
  <path class="cls-2" d="m553.12,628.39l46.88,28.13,46.88-28.13v-56.78l-46.88-28.13-46.88,28.13v56.78Zm46.88,44.66c-1.35,0-2.73-.37-3.93-1.09l-54.51-32.71c-2.31-1.37-3.71-3.86-3.71-6.54v-65.42c0-2.68,1.4-5.17,3.71-6.54l54.51-32.71c2.42-1.44,5.43-1.44,7.85,0l54.51,32.71c2.29,1.37,3.71,3.86,3.71,6.54v65.42c0,2.68-1.4,5.17-3.71,6.54l-54.51,32.71c-1.2.72-2.57,1.09-3.92,1.09h0Z"/>
  <path class="cls-2" d="m654.52,574.92c-4.21,0-7.63-3.42-7.63-7.63v-141.74c0-4.21,3.42-7.63,7.63-7.63s7.63,3.42,7.63,7.63v141.74c0,4.21-3.42,7.63-7.63,7.63Z"/>
  <path class="cls-2" d="m545.48,782.08c-4.21,0-7.63-3.42-7.63-7.63v-141.74c0-4.21,3.42-7.63,7.63-7.63s7.63,3.42,7.63,7.63v141.74c0,4.21-3.42,7.63-7.63,7.63Z"/>
  <path class="cls-2" d="m654.52,574.92c-4.21,0-7.63-3.42-7.63-7.63v-141.74c0-4.21,3.42-7.63,7.63-7.63s7.63,3.42,7.63,7.63v141.74c0,4.21-3.42,7.63-7.63,7.63Z"/>
  <path class="cls-2" d="m545.48,782.08c-4.21,0-7.63-3.42-7.63-7.63v-141.74c0-4.21,3.42-7.63,7.63-7.63s7.63,3.42,7.63,7.63v141.74c0,4.21-3.42,7.63-7.63,7.63Z"/>
  <path class="cls-2" d="m600,542.21c-1.96,0-3.9-.74-5.41-2.22l-92.68-92.68c-2.99-2.99-2.99-7.81,0-10.79,2.99-2.99,7.81-2.99,10.79,0l92.68,92.68c2.99,2.99,2.99,7.81,0,10.79-1.48,1.48-3.42,2.22-5.39,2.22h0Z"/>
  <path class="cls-2" d="m730.84,738.47c-1.16,0-2.31-.26-3.4-.81l-130.84-65.42c-3.77-1.88-5.3-6.48-3.42-10.25,1.88-3.77,6.48-5.3,10.25-3.4l130.84,65.42c3.77,1.88,5.3,6.48,3.4,10.25-1.33,2.66-4.03,4.21-6.83,4.21h0Z"/>
  <path class="cls-2" d="m654.52,640.34c-2.09,0-4.16-.85-5.67-2.53-2.81-3.14-2.57-7.96.57-10.77l109.03-98.13c3.14-2.81,7.96-2.57,10.77.57,2.81,3.14,2.57,7.96-.57,10.77l-109.03,98.13c-1.46,1.31-3.27,1.96-5.1,1.96h0Z"/>
  <path class="cls-2" d="m425.55,662.15c-2.36,0-4.69-1.09-6.17-3.14-2.49-3.4-1.72-8.18,1.68-10.66l119.93-87.22c3.4-2.49,8.18-1.72,10.66,1.68,2.49,3.4,1.72,8.18-1.68,10.66l-119.93,87.22c-1.35.98-2.92,1.46-4.49,1.46h0Z"/>
</svg>

<?xml version="1.0" encoding="utf-8"?>
<!-- Generator: Adobe Illustrator 27.8.1, SVG Export Plug-In . SVG Version: 6.00 Build 0)  -->
<svg version="1.1" id="Layer_1" xmlns="http://www.w3.org/2000/svg" xmlns:xlink="http://www.w3.org/1999/xlink" x="0px" y="0px"
	 viewBox="0 0 1200 1200" style="enable-background:new 0 0 1200 1200;" xml:space="preserve">
<style type="text/css">
	.st0{display:none;fill:#FFFFFF;}
	.st1{fill:#207178;}
</style>
<rect class="st0" width="1200" height="1200"/>
<rect class="st0" width="1200" height="1200"/>
<path class="st1" d="M600,356.9c-134.1,0-243.1,109.1-243.1,243.1S465.9,843.1,600,843.1S843.1,734.1,843.1,600
	S734.1,356.9,600,356.9z M600,858.4c-69,0-133.9-26.9-182.7-75.7S341.6,669,341.6,600s26.9-133.9,75.7-182.7S531,341.6,600,341.6
	s133.9,26.9,182.7,75.7S858.4,531,858.4,600s-26.9,133.9-75.7,182.7S669,858.4,600,858.4z"/>
<path class="st1" d="M600,422.3c-98,0-177.7,79.7-177.7,177.7S502,777.7,600,777.7S777.7,698,777.7,600S698,422.3,600,422.3z
	 M600,793c-106.4,0-193-86.6-193-193s86.6-193,193-193s193,86.6,193,193S706.4,793,600,793z"/>
<path class="st1" d="M553.1,628.4l46.9,28.1l46.9-28.1v-56.8L600,543.5l-46.9,28.1V628.4z M600,673c-1.3,0-2.7-0.4-3.9-1.1
	l-54.5-32.7c-2.3-1.4-3.7-3.9-3.7-6.5v-65.4c0-2.7,1.4-5.2,3.7-6.5l54.5-32.7c2.4-1.4,5.4-1.4,7.8,0l54.5,32.7
	c2.3,1.4,3.7,3.9,3.7,6.5v65.4c0,2.7-1.4,5.2-3.7,6.5L603.9,672C602.7,672.7,601.3,673,600,673L600,673z"/>
<path class="st1" d="M654.5,574.9c-4.2,0-7.6-3.4-7.6-7.6V425.5c0-4.2,3.4-7.6,7.6-7.6s7.6,3.4,7.6,7.6v141.7
	C662.2,571.5,658.7,574.9,654.5,574.9z"/>
<path class="st1" d="M545.5,782.1c-4.2,0-7.6-3.4-7.6-7.6V632.7c0-4.2,3.4-7.6,7.6-7.6s7.6,3.4,7.6,7.6v141.7
	C553.1,778.7,549.7,782.1,545.5,782.1z"/>
<path class="st1" d="M654.5,574.9c-4.2,0-7.6-3.4-7.6-7.6V425.5c0-4.2,3.4-7.6,7.6-7.6s7.6,3.4,7.6,7.6v141.7
	C662.2,571.5,658.7,574.9,654.5,574.9z"/>
<path class="st1" d="M545.5,782.1c-4.2,0-7.6-3.4-7.6-7.6V632.7c0-4.2,3.4-7.6,7.6-7.6s7.6,3.4,7.6,7.6v141.7
	C553.1,778.7,549.7,782.1,545.5,782.1z"/>
<path class="st1" d="M600,542.2c-2,0-3.9-0.7-5.4-2.2l-92.7-92.7c-3-3-3-7.8,0-10.8c3-3,7.8-3,10.8,0l92.7,92.7c3,3,3,7.8,0,10.8
	C603.9,541.5,602,542.2,600,542.2L600,542.2L600,542.2z"/>
<path class="st1" d="M730.8,738.5c-1.2,0-2.3-0.3-3.4-0.8l-130.8-65.4c-3.8-1.9-5.3-6.5-3.4-10.2s6.5-5.3,10.2-3.4L734.3,724
	c3.8,1.9,5.3,6.5,3.4,10.2C736.3,736.9,733.6,738.5,730.8,738.5L730.8,738.5z"/>
<path class="st1" d="M654.5,640.3c-2.1,0-4.2-0.8-5.7-2.5c-2.8-3.1-2.6-8,0.6-10.8l109-98.1c3.1-2.8,8-2.6,10.8,0.6s2.6,8-0.6,10.8
	l-109,98.1C658.2,639.7,656.4,640.3,654.5,640.3L654.5,640.3L654.5,640.3z"/>
<path class="st1" d="M425.5,662.2c-2.4,0-4.7-1.1-6.2-3.1c-2.5-3.4-1.7-8.2,1.7-10.7L541,561.1c3.4-2.5,8.2-1.7,10.7,1.7
	c2.5,3.4,1.7,8.2-1.7,10.7L430,660.7C428.7,661.7,427.1,662.1,425.5,662.2L425.5,662.2L425.5,662.2z"/>
</svg>
